!!!OTL: IN BOEHMEN LIEGT EIN STAEDTCHEN
!!!ARE: Europa, Mitteleuropa, Deutschland, Hessen, Marburg; Lahn - Tal;     Schleswig
!!!SCT: E1383
!!!YEM: Copyright 1995, estate of Helmut Schaffrath.
**kern
*ICvox
*Ivox
*M2/4
*k[b-]
*F:
{8c
=1
8.c
16a
8a
8a
=2
4a
8f}
{8a
=3
8.cc
16cc
8cc
8dd
=4
4cc
8r}
{8cc
=5
8.ee
16dd
8ee
8dd
=6
4dd
8cc}
{8b-
=7
8a
8cc
8g
8cc
=8
4f
8r}
==
!!!AGN: Staende -, Soldaten -, Kriegs - Lied
!!!ONB: ESAC (Essen Associative Code) Database: ERK3
!!!AMT: simple duple
!!!AIN: vox
!!!EED: Helmut Schaffrath
!!!EEV: 1.0
*-
!!!title: @{OTL} [@{SCT}]
